ui/icon/svg/grid-sharp.svg

<svg viewBox="0 0 512 512" xmlns="http://www.w3.org/2000/svg"><path d="m240 240h-208v-208h208zm240 0h-208v-208h208zm-240 240h-208v-208h208zm240 0h-208v-208h208z"/></svg>

<svg xmlns="http://www.w3.org/2000/svg" class="ionicon" viewBox="0 0 512 512"><title>Grid</title><path d="M240 240H32V32h208zM480 240H272V32h208zM240 480H32V272h208zM480 480H272V272h208z"/></svg>
